raw-svg/turkish-lira.svg

<svg fill="none" height="24" viewBox="0 0 24 24" width="24" xmlns="http://www.w3.org/2000/svg"><path clip-rule="evenodd" d="m10 3.25c.4142 0 .75.33579.75.75v3.62655l4.8839-1.82896c.3879-.14526.8201.05143.9654.43934.1452.3879-.0515.82012-.4394.96539l-5.4099 2.02597v.64826l4.8839-1.82896c.3879-.14526.8201.05143.9654.43934.1452.3879-.0515.82012-.4394.96539l-5.4099 2.02598v7.7326c3.6179-.3789 6.5-3.4651 6.5-7.2109 0-.4142.3358-.75.75-.75s.75.3358.75.75c0 4.8353-3.9658 8.75-8.75 8.75-.41419 0-.74997-.3358-.74997-.75v-7.96l-2.98697 1.1186c-.38791.1453-.82013-.0514-.9654-.4393-.14526-.3879.05143-.8201.43934-.9654l3.51303-1.3156v-.64828l-2.98697 1.11858c-.38791.1453-.82013-.0514-.9654-.4393-.14526-.3879.05143-.82014.43934-.96541l3.51303-1.3156v-4.18829c0-.41421.33578-.75.74997-.75z" fill="#000" fill-rule="evenodd"/></svg>

<svg width="24" height="24" viewBox="0 0 24 24" fill="none" xmlns="http://www.w3.org/2000/svg">
<path fill-rule="evenodd" clip-rule="evenodd" d="M10 3.25C10.4142 3.25 10.75 3.58579 10.75 4V7.62655L15.6339 5.79759C16.0218 5.65233 16.454 5.84902 16.5993 6.23693C16.7445 6.62483 16.5478 7.05705 16.1599 7.20232L10.75 9.22829V9.87655L15.6339 8.04759C16.0218 7.90233 16.454 8.09902 16.5993 8.48693C16.7445 8.87483 16.5478 9.30705 16.1599 9.45232L10.75 11.4783V19.2109C14.3679 18.832 17.25 15.7458 17.25 12C17.25 11.5858 17.5858 11.25 18 11.25C18.4142 11.25 18.75 11.5858 18.75 12C18.75 16.8353 14.7842 20.75 10 20.75C9.58581 20.75 9.25003 20.4142 9.25003 20V12.04L6.26306 13.1586C5.87515 13.3039 5.44293 13.1072 5.29766 12.7193C5.1524 12.3314 5.34909 11.8992 5.737 11.7539L9.25003 10.4383V9.79002L6.26306 10.9086C5.87515 11.0539 5.44293 10.8572 5.29766 10.4693C5.1524 10.0814 5.34909 9.64916 5.737 9.50389L9.25003 8.18829V4C9.25003 3.58579 9.58581 3.25 10 3.25Z" fill="black"/>
</svg>
